X: 1817
T: Biddy I'm Not Jesting
M:C
L:1/8
B:O'Neill's 1817
N:"collected by F. O'Neill"
Z:"Transcribed by Bob Safranek, rjs@gsp.org"
K:G
   D2 | DEGA B2 (AG) | AGAB d2 (BG) | E2 (DB,) DEGA | B2 A>A A2 D2 |
        DEGA B2 (AG) | AGAB d2 (BG) | E2 (DB,) DEGA | B2 G>G G2   :|
|: D2 | GABd e2 (ge) | dBGE c2 (Bc) |   dBGE   DEGA | B2 A>A A2 D2 |
        DEGA B2 (AG) | AGAB d2 (BG) | E2 (DB,) DEGA | B2 G>G G2   :|


